X:1
T:James Gibb editions
T:Tantum ergo (E flat) - Bruckner
%%score [ 1 2 3 4 ]
L:1/8
Q:1/4=120
M:2/2
K:Eb
V:1 treble nm="S" snm="S"
V:2 treble nm="A" snm="A"
V:3 treble-8 nm="T" snm="T"
V:4 bass nm="B" snm="B"
V:1
!f!"^Tantum ergo (E flat)""^Anton Bruckner\n(1824-1896)" e4 B4 | B4 G4 |!p! E4 E4 | E4 E4 | %4
w: Tan- tum|er- go|Sa- cra-|men- tum|
w: Ge- ni-|to- ri,|Ge- ni-|to- que|
!f! G4 G4 | c4 =B4 | e6"^dim." d2 | d4 z4 |!f! e4 B4 |[M:2/2] B4 G4 |!p! E4 E4 | %11
w: ve- ne-|re- mur|cer- nu-|i:|Et an-|ti- quum|do- cu-|
w: laus et|ju- bi-|­~la ti-|o,|Sa- lus,|ho- nor,|vir- tus|
"^cresc." (E2 F2) G4 |!f! G4 =e4 | (f2 _e2) (_d2 c2) | (B2 c2 _d2) (cd) | e4 z4 |!f! c4 (_e2 _d2) | %17
w: men\- * tum|no- vo|ce\- * dat *|ri\- * * tu\- *|i:|Prae- stet *|
w: quo\- * que|sit et|be\- * ne\- *|di\- * * cti\- *|o:|Pro- ce\- *|
 (c2 B2) c4 |!p! A4 (c2 B2) | (=A2 G2) A4 |!f! _A4 (G2 f2) | (e2 d2) (c2 B2) | A4"^dim." (G2 F2) | %23
w: fi\- * des|sup- ple\- *|men\- * tum|sen- su\- *|um * de\- *|fe- ctu\- *|
w: den\- * ti|ab- u\- *|tro\- * que|com- par *|sit * lau\- *|da- ti\- *|
 G8 ||"^adagio"!pp! (A8 | G4 F4) | !fermata!G8 |] %27
w: i.||||
w: o.|A\-||men.|
V:2
!f! G4 G4 | F4 E4 |!p! E4 (E2 D2) | (D2 C2) B,4 |!f! =B,4 C4 | (E2 F2) G4 | (G4 ^F2)"^dim." F2 | %7
w: Tan- tum|er- go|Sa- cra\- *|men\- * tum|ve- ne-|re\- * mur|cer\- * nu-|
w: Ge- ni-|to- ri,|Ge- ni\- *|to\- * que|laus et|ju\- * bi-|la\- * ti-|
 G4 z4 |!f! G4 G4 |[M:2/2] F4 E4 |!p! E4 (E2 D2) |"^cresc." (D2 C2) =B,4 |!f! C4 G4 | F4 (F2 E2) | %14
w: i:~i:|Et an-|ti- quum|do- cu- *|men- * tum|no- vo|ce- dat *|
w: o,|Sa- lus,|ho- nor,|vir- tus *|quo- * que|sit et|be- ne- *|
 (_D2 E2 F2) F2 | A4 z4 |!f! =E4 F4 | (G2 B2) =E4 |!p! C4 _D4 | C4 C4 |!f! =D4 (D2 G2) | %21
w: ri\- * * tu-|i:|Prae- stet|fi\- * des|sup- ple-|men- tum|sen- su\- *|
w: di\- * * cti-|o:|Pro- ce-|den\- * ti|ab- u-|tro- que|com- par *|
 (G2 E2) E4 | E4"^dim." D4 | E8 ||!pp! (E8 | D8) | !fermata!E8 |] %27
w: um * de-|fe- ctu-|i.||||
w: sit * lau-|da- ti-|o.|A\-||men.|
V:3
!f! B4 B4 | B4 B4 |!p! E4 E4 | (E2 A2) G4 |!f! F4 E4 | c4 d4 | (d2 cB =A2)"^dim." A2 | =B4 z4 | %8
w: Tan- tum|er- go|Sa- cra-|men\- * tum|ve- ne-|re- mur|cer\- * * * nu-|i:|
w: Ge- ni-|to- ri,|Ge- ni-|to\- * que|laus et|ju- bi-|la\- * * * ti-|o,|
!f! _B4 B4 |[M:2/2][K:treble-8] B4 B4 |!p! E4 E4 |"^cresc." (E2 D2) D4 |!f! =E4 B4 | A4 A4 | %14
w: Et an-|ti- quum|do- cu-|men\- * tum|no- vo|ce- dat|
w: Sa- lus,|ho- nor,|vir- tus|quo\- * que|sit et|be- ne-|
 _d6 d2 | c4 z4 |!f! B4 A4 | (G2 F2) G4 |!p! F4 F4 | =E4 F4 |!f! F4 (G2 d2) | (e2 G2) (e2 d2) | %22
w: ri- tu-|i:|Prae- stet|fi\- * des|sup- ple|men- tum|sen- su\- *|um * de\- *|
w: di- cti-|o:|Pro- ce-|den\- * ti|ab- u-|tro- que|com- par *|sit * lau\- *|
 c4"^dim." B4 | B8 ||!pp! (c8 | B8) | !fermata!B8 |] %27
w: fe- ctu-|i.||||
w: da- ti-|o.|A\-||men.|
V:4
!f! E,4 E,4 | D,4 E,4 |!p! (C,2 =B,,2) (C,2 _B,,2) | A,,4 E,4 |!f! D,4 C,4 | A,4 G,4 | %6
w: Tan- tum|er- go|Sa\- * cra\- *|men- tum|ve- ne-|re- mur|
w: Ge- ni-|to- ri,|Ge\- * ni\- *|to- que|laus et|ju- bi-|
 C,6"^dim." C,2 | G,,4 z4 |!f! E,4 E,4 |[M:2/2] D,4 E,4 |!p! (C,2 =B,,2) (C,2 _B,,2) | %11
w: cer- nu-|i:|Et an-|ti- quum|do\- * cu\- *|
w: ­~la ti-|o,|Sa- lus,|ho- nor,|vir\- * tus *|
"^cresc." A,,4 G,,4 |!f! C,4 C,4 | _D,4 D,4 | B,6 B,2 | A,4 z4 |!f! G,4 F,4 | (E,2 _D,2) C,4 | %18
w: men- tum|no- vo|ce- dat|ri- tu-|i:|Prae- stet|fi\- * des|
w: quo- que|sit et|be- ne-|di- cti-|o:|Pro- ce-|den\- * ti|
!p! F,4 B,,4 | C,4 F,,4 |!f! B,,4 =B,,4 | (C,2 _B,,2) A,,4 | B,,4"^dim." B,,4 | E,8 ||!pp! (A,,8 | %25
w: sup- ple-|­~men tum|sen- su-|um * de-|fe- ctu-|i.||
w: ab- u-|tro- que|com- par|sit * lau-|da- ti-|o.|A\-|
 B,,8) | !fermata![E,,E,]8 |] %27
w: ||
w: |men.|

